svgs/skype.svg

<svg width="192" height="192" viewBox="0 0 192 192" fill="none" xmlns="http://www.w3.org/2000/svg"><path d="m85.681 30.802-3.8 4.643a6 6 0 0 0 4.731 1.284l-.93-5.927Zm-54.88 54.88 5.928.93a6 6 0 0 0-1.284-4.73l-4.643 3.8Zm75.518 75.516 3.799-4.643a5.998 5.998 0 0 0-4.73-1.284l.931 5.927Zm54.879-54.879-5.927-.931a5.998 5.998 0 0 0 1.284 4.73l4.643-3.799Zm-71.717-80.16A44.839 44.839 0 0 0 61 16v12a32.84 32.84 0 0 1 20.882 7.445l7.599-9.287ZM61 16c-24.853 0-45 20.147-45 45h12c0-18.225 14.775-33 33-33V16ZM16 61a44.84 44.84 0 0 0 10.158 28.481l9.287-7.6A32.84 32.84 0 0 1 28 61H16Zm20 35c0-3.198.25-6.333.73-9.388l-11.855-1.861A72.497 72.497 0 0 0 24 96h12Zm60 60c-33.137 0-60-26.863-60-60H24c0 39.764 32.236 72 72 72v-12Zm9.388-.729c-3.055.479-6.19.729-9.388.729v12c3.823 0 7.581-.299 11.249-.875l-1.861-11.854Zm-2.869 10.571A44.84 44.84 0 0 0 131 176v-12a32.844 32.844 0 0 1-20.882-7.445l-7.599 9.287ZM131 176c24.853 0 45-20.147 45-45h-12c0 18.225-14.775 33-33 33v12Zm45-45a44.84 44.84 0 0 0-10.158-28.481l-9.287 7.599A32.844 32.844 0 0 1 164 131h12Zm-20-35c0 3.198-.25 6.333-.729 9.388l11.854 1.861c.576-3.668.875-7.426.875-11.249h-12ZM96 36c33.137 0 60 26.863 60 60h12c0-39.764-32.236-72-72-72v12Zm-9.388.73A60.45 60.45 0 0 1 96 36V24c-3.823 0-7.58.299-11.25.875l1.862 11.854Z" fill="#000"/><path d="M115.091 67.778S107.455 62 96 62c-7.636 0-21 0-21 15.111C75 96 117 96 117 114.89 117 130 103.636 130 96 130c-11.454 0-19.09-5.778-19.09-5.778" stroke="#000" stroke-width="12" stroke-linecap="round" stroke-linejoin="round"/></svg>

<?xml version="1.0" encoding="UTF-8" standalone="no"?><svg xmlns:android="http://schemas.android.com/apk/res/android" height="192" width="192" xmlns="http://www.w3.org/2000/svg">
  <path d="M85.681,30.802L81.882,35.445C83.204,36.527 84.924,36.994 86.612,36.729L85.681,30.802ZM30.802,85.681L36.729,86.612C36.994,84.924 36.527,83.204 35.445,81.882L30.802,85.681ZM106.319,161.198L110.118,156.555C108.796,155.473 107.076,155.006 105.388,155.271L106.319,161.198ZM161.198,106.319L155.271,105.388C155.006,107.076 155.473,108.796 156.555,110.118L161.198,106.319ZM89.481,26.158C81.725,19.812 71.8,16 61,16V28C68.929,28 76.191,30.789 81.882,35.445L89.481,26.158ZM61,16C36.147,16 16,36.147 16,61H28C28,42.775 42.775,28 61,28V16ZM16,61C16,71.8 19.812,81.725 26.158,89.481L35.445,81.882C30.789,76.191 28,68.929 28,61H16ZM36,96C36,92.802 36.25,89.667 36.729,86.612L24.875,84.751C24.299,88.42 24,92.177 24,96H36ZM96,156C62.863,156 36,129.137 36,96H24C24,135.764 56.236,168 96,168V156ZM105.388,155.271C102.333,155.75 99.198,156 96,156V168C99.823,168 103.581,167.701 107.249,167.125L105.388,155.271ZM102.519,165.842C110.275,172.188 120.2,176 131,176V164C123.071,164 115.809,161.211 110.118,156.555L102.519,165.842ZM131,176C155.853,176 176,155.853 176,131H164C164,149.225 149.225,164 131,164V176ZM176,131C176,120.2 172.188,110.275 165.842,102.519L156.555,110.118C161.211,115.809 164,123.071 164,131H176ZM156,96C156,99.198 155.75,102.333 155.271,105.388L167.125,107.249C167.701,103.581 168,99.823 168,96H156ZM96,36C129.137,36 156,62.863 156,96H168C168,56.236 135.764,24 96,24V36ZM86.612,36.729C89.667,36.25 92.802,36 96,36V24C92.177,24 88.42,24.299 84.751,24.875L86.612,36.729Z" fill="#000000"/>
  <path d="M115.091,67.778C115.091,67.778 107.455,62 96,62C88.364,62 75,62 75,77.111C75,96 117,96 117,114.889C117,130 103.636,130 96,130C84.546,130 76.909,124.222 76.909,124.222" fill="#000000" fill-opacity="0.0" stroke="#000000" stroke-linecap="round" stroke-linejoin="round" stroke-width="12"/>
</svg>
